**kern	**text
*clefG2	*
*k[b-e-a-d-]	*
*M4/4	*
*MM172	*
=1	=1
2r	.
4r	.
8r	.
8e-	つ
=2	=2
8fL	ゆ
8e-	が
8e-	あ
8e-J	け
8e-L	る
8c	ま
8c	で
8cJ	あ
*clefF4	*
=3	=3
8B-L	と
8A-	ど
8B-	れ
8cJ	く
8cL	ら
8c'	い
8B-	ま
8A-J	だ
=4	=4
8B-L	じ
8A-J	さ
8B-L	い
16.A-L	の
32A-JJk	ひ
8cL	か
8B-	る
8B-	あ
8A-J	さ
=5	=5
8B-L	き
8A-	み
8B-	の
*clefG2	*
8cJ	ぐ
4c'	ち
8r	.
8e-	な
=6	=6
8fL	つ
8e-	の
8e-	あ
8e-J	し
8e-L	お
8c	と
8c	わ
8cJ	す
*clefF4	*
=7	=7
8B-L	ぐ
8A-	そ
8B-	こ
8e-J	ま
4c'	で
*clefG2	*
8fL	ね
8e-J	む
=8	=8
8fL	か
8fJ	え
4g	に
4a-'	こ
8e-L	て
[8ccJ	ぼ
=9	=9
16.ccLL]	.
32ccJK	く
8a-J	を
8a-L	せ
8b-J	か
4a-'	す
8r	.
8e-	き
=10	=10
8fL	み
8e-	に
8e-	わ
8e-J	れ
8e-L	る
8c	が
8c	ま
8cJ	ま
*clefF4	*
=11	=11
8B-L	ろ
8A-	じ
8B-	を
8cJ	ぬ
4c'	け
8B-L	あ
8A-J	の
=12	=12
8B-L	と
8A-	き
8B-	の
8A-J	さ
8cL	か
8B-	を
8A-	こ
8A-J	え
=13	=13
8B-L	に
8A-	じ
8B-	を
*clefG2	*
8cJ	こ
4c'	え
8fL	ま
8e-J	だ
=14	=14
8fL	だ
8f	れ
8g	も
8gJ	い
8a-L	な
8a-	い
8b-	な
8b-J	つ
=15	=15
8ccL	う
8b-	の
8b-	そ
8a-J	ら
4a-'	を
8ee-L	ぜ
8a-J	ん
=16	=16
4a-'	ぶ
8ee-L	ぜ
8a-J	ん
4a-'	ぶ
8a-L	ふ
[8b-J	た
=17	=17
8b-L]	.
8cc	り
8cc	じ
8dd-J	め
8ee-L	に
8a-	す
8b-	る
8a-J	ん
=18	=18
[4.a-	だ
16a-LL]	.
16a-JJ	う
4ff	わ
[4ee-	あ
=19	=19
2ee-]	.
8cc-XL	な
8b-J	ん
4a-	て
=20	=20
4r	.
4f	き
4a-	み
8b-L	わ
8b-J	わ
=21	=21
4cc'	ら
8dd-L	て
[8ccJ	た
8ccL]	.
8a-	よ
8b-	な
8a-J	あ
=22	=22
4r	.
8a-L	と
[8ee-J	お
4ee-]	.
8ee-L	い
[8ee-J	な
=23	=23
4ee-]	.
8ffL	つ
[8ee-J	の
8ee-L]	.
8a-	お
8a-	き
[8a-J	お
=24	=24
4a-_	.
16.a-LL_	.
64.a-LL]	.
128a-JJJJk	く
8r	.
4r	.
8b-L	も
8a-J	お
=25	=25
4cc	あ
8ee-L	え
[8cc-XJ	な
16cc-LL]	.
16cc-J	く
8b-J	て
4a-	も
=26	=26
4r	.
8a-L	に
[8ee-J	ど
4ee-]	.
8ccL	と
[8ee-J	か
=27	=27
8.ee-L]	.
16ee-Jk	え
8ffL	れ
[8ee-J	な
8.ee-L]	.
16a-Jk	く
8a-L	て
[8a-J	も
=28	=28
4a-]	.
4r	.
4a-	そ
8b-L	れ
[8ccJ	わ
=29	=29
8ccL]	.
8b-	あ
8b-	う
[8b-J	つ
8b-L]	.
8a-	う
8a-	く
8b-J	し
=30	=30
4a-'	い
8ffL	ぼ
8ee-J	く
8a-L	う
8a-	ら
8a-	だ
8b-J	け
=31	=31
16.a-LL	え
32a-JK	ん
8a-J	な
8ffL	つ
[8ee-J	だ
8ee-]	.
8r	.
8a-L	た
8ccJ	ろ
=32	=32
2b-	お
4r	.
8ffL	お
[8ee-J	お
=33	=33
4ee-]	.
8r	.
8cc	さ
4cc	よ
4ee-	な
=34	=34
2.aa-	ら
8ffL	あ
[8ee-J	あ
=35	=35
8.ee-L]	.
16ee-Jk	い
4cc	ら
8b-L	びゅ
8a-J	う
4a-	そ
=36	=36
4cc	れ
4cc	で
8ccL	す
8b-	べ
8a-	て
8b-J	え
=37	=37
4a-	え
8r	.
8cc	お
4cc'	わ
8ee-L	て
8ee-J	し
=38	=38
2.aa-	ま
8ffL	あ
[8ee-J	あ
=39	=39
8.ee-L]	.
16ee-Jk	う
4cc	よ
8b-L	な
8a-J	あ
[8.a-L	ぼ
32a-LL]	.
32a-JJJ	く
=40	=40
4cc	ら
8ee-L	じゃ
8b-J	な
8ccL	い
8b-	だ
8a-	あ
8b-J	ろ
=41	=41
4a-	お
8r	.
8a-	か
4cc	わ
4ee-	ら
=42	=42
2.aa-	な
8ffL	あ
[8ee-J	あ
=43	=43
8.ee-L]	.
16ee-Jk	い
2cc	な
4cc	そ
=44	=44
4b-	ら
4a-	も
4ee-	ほ
8ffL	し
8ccJ	い
=45	=45
[8.ccL	も
32ccLL]	.
32ccJJJ	そ
8ee-L	の
[8ccJ	な
16.ccLL]	.
32ccJK	き
8b-J	が
8a-L	お
8b-J	も
=46	=46
4a-	お
8r	.
8a-	て
[8.ffL	い
32ffLL]	.
32ffJJJ	つ
4ee-	か
=47	=47
4a-	あ
4a-	き
4cc	み
4cc	と
=48	=48
4b-	お
8r	.
8a-	ま
4a-	た
4b-	わ
=49	=49
*^	*
4r	4cc	.
8r	4ee-'	.
[8cc	.	ま
8cc]	16r	.
.	32r	.
.	32b-KKL	す
8r	8b-J	.
4r	8a-L	.
.	8b-J	に
*v	*v	*
=50	=50
4a-'	い
4r	.
2r	.
=51	=51
1r	.
=52	=52
1r	.
=53	=53
1r	.
=54	=54
1r	.
=55	=55
1r	.
=56	=56
1r	.
=57	=57
1r	.
=58	=58
1r	.
=59	=59
1r	.
=60	=60
1r	.
=61	=61
1r	.
=62	=62
1r	.
=63	=63
1r	.
=64	=64
1r	.
=65	=65
1r	.
=66	=66
2r	.
4r	.
8d-L	そ
8e-J	りゃ
=67	=67
4en	い
4cc-X	ろ
4cc-	い
8cc-L	ろ
8dd-J	お
=68	=68
4a-'	あ
8g-XL	た
8enJ	だ
4e	ろ
8eL	い
8d-J	ま
=69	=69
4en	も
4a-	あ
8g-XL	る
8eJ	う
4e	だ
=70	=70
4a-	ろ
4r	.
8a-L	で
8g-XJ	も
4en	わ
=71	=71
8enL	ら
8eJ	い
4cc-X	な
4cc-	が
8cc-L	ら
8dd-J	あ
=72	=72
8.a-L	い
16a-Jk	き
8g-XL	て
8enJ	ゆ
4e'	く
8d-L	そ
8e-XJ	れ
=73	=73
4en	が
8a-L	じ
8a-J	ん
8g-XL	せ
8eJ	い
4e'	だ
=74	=74
4en	て
4r	.
8d-L	そ
8d-J	ん
4e-X	な
=75	=75
8enL	た
8e	ん
8cc-X	さ
8cc-J	い
4cc-	ぼ
8dd-L	に
8dd-J	な
=76	=76
4a-	れ
8g-XL	た
8enJ	な
4e'	ら
8eL	ど
8d-J	れ
=77	=77
4en	だ
4a-	け
8g-XL	い
8eJ	い
4e'	か
=78	=78
4a-	て
4r	.
4a-	す
4cc-X	ぎ
=79	=79
8.dd-L	さ
[16cc-XJk	て
8cc-L]	.
16cc-L	い
16cc-JJ	く
8.cc-L	ひ
[16a-Jk	び
8a-L]	.
8a-J	に
=80	=80
8.g-XL	い
[16enJk	み
8eL]	.
8eJ	わ
16eKL	な
8.e'J	い
8dd-L	な
[8cc-XJ	ら
=81	=81
16.cc-LL]	.
32cc-XJJk	し
4cc-	た
8cc-	の
8.cc-L	ぼ
[16a-Jk	く
8a-L]	.
8a-J	わ
=82	=82
8.g-XL	ぼ
[16enJk	く
8eL]	.
8eJ	じゃ
16eKL	な
8.e'J	い
8dd-L	そ
[8cc-XJ	ん
=83	=83
4cc-]	.
8enL	な
[8eJ	は
4e]	.
8dd-L	ず
[8cc-XJ	わ
=84	=84
8cc-L]	.
8a-	あ
8a-	な
[8g-XJ	い
8g-L]	.
8en	い
8e	だ
8eJ	ろ
=85	=85
[2.g-X	お
8g-L]	.
[8cc-XJ	お
=86	=86
4cc-]	.
8r	.
8a-	な
4a-	い
8cc-XL	て
8cc-J	い
=87	=87
8ee-L	た
8dd-	あ
8ee-	あ
8dd-J	あ
8ee-L	あ
8dd-	あ
8ee-	あ
[8dd-J	あ
=88	=88
4dd-]	.
4b-	て
8a-L	そ
8g-XJ	お
4g-	ら
=89	=89
4b-	わ
4b-	は
8b-L	れ
8a-J	る
[4g-X	よ
=90	=90
8g-]	.
8r	.
8r	.
8g-X	き
4b-	み
8.dd-L	が
16dd-Jk	ぬ
=91	=91
8ee-L	ら
8dd-	あ
8ee-	あ
8dd-J	あ
8ee-L	あ
8dd-	あ
8ee-	あ
[8dd-J	あ
=92	=92
8.dd-L_	.
32dd-LL]	.
32dd-JJJ	し
4b-'	た
8a-L	て
8g-XJ	え
8.g-L	に
16g-Jk	じ
=93	=93
4b-	ま
8dd-L	な
[8b-J	い
8b-L]	.
8a-	ほ
8g-X	お
8a-J	ど
=94	=94
4g-X	お
8r	.
8d-	あ
8b-L	が
8a-	い
8g-	て
8g-J	い
=95	=95
4.ee-	た
8ff	あ
4gg-X	あ
8ee-L	あ
[8dd-J	あ
=96	=96
8dd-]	.
8r	.
2b-	て
4b-	そ
=97	=97
4a-	ら
4g-X	わ
4dd-	ほ
8ee-L	し
8b-J	い
=98	=98
4b-	を
8e-L	ふ
[8b-J	ら
16.b-LL]	.
32b-JK	す
8a-J	か
8g-XL	あ
8a-J	ら
=99	=99
4g-X	あ
8r	.
8g-	ま
[8.ee-L	い
32ee-LL]	.
32ee-JJJ	き
4dd-	て
=100	=100
4g-X	え
4g-	ゆ
4b-	く
4b-	よ
=101	=101
2a-	お
4r	.
8ee-L	お
[8dd-J	お
=102	=102
4dd-]	.
8r	.
16b-LL	あ
16b-JJ	い
4b-	の
[8.dd-L	でぃ
32dd-LL]	.
32dd-JJJ	す
=103	=103
8ffL	か
8ee-	あ
8ff	あ
8ee-J	あ
8ffL	あ
8ee-	あ
8ff	あ
[8ee-J	あ
=104	=104
8.ee-L]	.
16ee-Jk	い
[8.ccL	ら
32ccLL]	.
32ccJJJ	ぶ
32b-KLL	ず
16.b-J	ゆ
8a-J	う
4a-	い
=105	=105
4cc	ず
4cc	れ
8ccL	す
8b-J	べ
[4a-	て
=106	=106
8a-]	.
8r	.
8r	.
8a-	か
4cc'	わ
8.ee-L	て
16ee-Jk	し
=107	=107
8ggL	ま
8ff	あ
8gg	あ
8ffJ	あ
8ggL	あ
8ff	あ
8gg	あ
[8ffJ	あ
=108	=108
8ff]	.
8r	.
4ddn'	た
8ccL	て
8b-	え
8gg	そ
8ffJ	お
=109	=109
4ff	ら
8ggL	わ
[8ddnJ	お
16ddLL]	.
16ddJ	い
8ccJ	だ
8b-L	あ
8ccJ	ろ
=110	=110
4b-	お
8r	.
8b-	わ
4ddn	す
8ffL	れ
8ffJ	な
=111	=111
4.gg	あ
[8bb-	あ
4bb-]	.
8ggL	あ
[8ffJ	あ
=112	=112
8.ffL]	.
16ffJk	い
2ddn	さ
4dd	で
=113	=113
4cc	も
4b-	ま
4ff	た
8ggL	で
8ddnJ	え
=114	=114
4ddn	あ
8ffL	え
[8ddJ	ま
16.ddLL]	.
32ddJK	す
8ccJ	よ
8b-L	お
8ccJ	に
=115	=115
4b-	い
8r	.
8b-	て
[8.ggL	い
32ggLL]	.
32ggJJJ	き
4ff	て
=116	=116
4b-	え
4b-	ゆ
4ddn	く
4dd	よ
=117	=117
4cc	お
8ccL	お
[8b-J	お
8b-]	.
8r	.
8b-L	き
8ccJ	み
=118	=118
4ddn	わ
8ee-L	わ
8ffJ	ら
8r	.
[8gg	て
16ggLL]	.
16ggJ	い
8ggJ	て
=119	=119
[1ff	え
=120	=120
1ff]	.
==	==
*-	*-
